HTML/img/Component/Tower of Hanoi.svg

<?xml version="1.0" encoding="UTF-8" standalone="no"?>
<svg
   xmlns:dc="http://purl.org/dc/elements/1.1/"
   xmlns:cc="http://creativecommons.org/ns#"
   xmlns:rdf="http://www.w3.org/1999/02/22-rdf-syntax-ns#"
   xmlns:svg="http://www.w3.org/2000/svg"
   xmlns="http://www.w3.org/2000/svg"
   xmlns:sodipodi="http://sodipodi.sourceforge.net/DTD/sodipodi-0.dtd"
   xmlns:inkscape="http://www.inkscape.org/namespaces/inkscape"
   viewBox="0.0 0.0 348.0 348.0"
   fill="none"
   version="1.1"
   id="svg819"
   sodipodi:docname="Tower of Hanoi.svg"
   inkscape:version="0.92.4 (5da689c313, 2019-01-14)">
  <metadata
     id="metadata825">
    <rdf:RDF>
      <cc:Work
         rdf:about="">
        <dc:format>image/svg+xml</dc:format>
        <dc:type
           rdf:resource="http://purl.org/dc/dcmitype/StillImage" />
      </cc:Work>
    </rdf:RDF>
  </metadata>
  <defs
     id="defs823" />
  <sodipodi:namedview
     pagecolor="#ffffff"
     bordercolor="#666666"
     borderopacity="1"
     objecttolerance="10"
     gridtolerance="10"
     guidetolerance="10"
     inkscape:pageopacity="0"
     inkscape:pageshadow="2"
     inkscape:window-width="1366"
     inkscape:window-height="745"
     id="namedview821"
     showgrid="false"
     inkscape:zoom="1.6609195"
     inkscape:cx="174"
     inkscape:cy="174"
     inkscape:window-x="-8"
     inkscape:window-y="-8"
     inkscape:window-maximized="1"
     inkscape:current-layer="svg819" />
  <path
     d="M5.079 5.776h336.913v337.67H5.08z"
     stroke-width="2"
     stroke="#000"
     id="path815" />
  <path
     d="M282.734 40.554c0-8.376 6.966-15.165 15.56-15.165 4.126 0 8.084 1.597 11.001 4.441 2.918 2.844 4.558 6.702 4.558 10.724 0 8.376-6.966 15.165-15.56 15.165-8.593 0-15.559-6.79-15.559-15.165z"
     stroke-width="2"
     stroke="#000"
     id="path817" />
  <path
     inkscape:connector-curvature="0"
     style="stroke:#000000;stroke-width:1.9993701;stroke-miterlimit:4;stroke-dasharray:none"
     d="M 15.211737,251.25955 H 331.36537 v 82.09676 H 15.212663 Z"
     id="path815-0" />
  <path
     inkscape:connector-curvature="0"
     style="stroke:#000000;stroke-width:2.81726074;stroke-miterlimit:4;stroke-dasharray:none"
     d="m 163.21171,84.360023 h 8.94822 V 250.65747 h -8.94819 z"
     id="path815-0-9" />
  <path
     inkscape:connector-curvature="0"
     style="stroke:#000000;stroke-width:2.81726074;stroke-miterlimit:4;stroke-dasharray:none"
     d="m 248.15993,84.360023 h 8.94822 V 250.65747 h -8.94819 z"
     id="path815-0-9-9" />
  <path
     inkscape:connector-curvature="0"
     style="stroke:#000000;stroke-width:2.81726074;stroke-miterlimit:4;stroke-dasharray:none"
     d="m 77.211707,84.360023 h 8.94822 V 250.65747 h -8.94819 z"
     id="path815-0-9-5" />
  <path
     inkscape:connector-curvature="0"
     style="fill:#ffffff;stroke:#000000;stroke-width:2.55492377;stroke-miterlimit:4;stroke-dasharray:none"
     d="m 39.813538,236.42293 h 82.487782 v 14.83662 H 39.813813 Z"
     id="path815-0-9-5-1" />
  <path
     inkscape:connector-curvature="0"
     style="fill:#ffffff;stroke:#000000;stroke-width:2.36882448;stroke-miterlimit:4;stroke-dasharray:none"
     d="m 46.41538,221.40021 h 70.03029 v 15.02272 H 46.415614 Z"
     id="path815-0-9-5-1-9" />
  <path
     inkscape:connector-curvature="0"
     style="fill:#ffffff;stroke:#000000;stroke-width:2.20389771;stroke-miterlimit:4;stroke-dasharray:none"
     d="m 51.017255,206.21257 h 59.959925 v 15.18764 H 51.017456 Z"
     id="path815-0-9-5-1-9-4" />
  <path
     inkscape:connector-curvature="0"
     style="fill:#ffffff;stroke:#000000;stroke-width:2.01134539;stroke-miterlimit:4;stroke-dasharray:none"
     d="m 56.415015,190.83237 h 49.315125 v 15.3802 H 56.415179 Z"
     id="path815-0-9-5-1-9-4-6" />
  <path
     inkscape:connector-curvature="0"
     style="fill:#ffffff;stroke:#000000;stroke-width:1.76813912;stroke-miterlimit:4;stroke-dasharray:none"
     d="m 62.414886,175.20897 h 37.516817 v 15.6234 H 62.415015 Z"
     id="path815-0-9-5-1-9-4-6-5" />
  <path
     inkscape:connector-curvature="0"
     style="fill:#ffffff;stroke:#000000;stroke-width:1.44623303;stroke-miterlimit:4;stroke-dasharray:none"
     d="M 68.961568,159.31896 H 93.55462 v 15.9453 H 68.961653 Z"
     id="path815-0-9-5-1-9-4-6-5-4" />
</svg>

<svg xmlns="http://www.w3.org/2000/svg" viewBox="0 0 348 348" fill="none"><path d="M5.079 5.776h336.913v337.67H5.08z" stroke-width="2" stroke="#000"/><path d="M282.734 40.554c0-8.376 6.966-15.165 15.56-15.165 4.126 0 8.084 1.597 11.001 4.441 2.918 2.844 4.558 6.702 4.558 10.724 0 8.376-6.966 15.165-15.56 15.165-8.593 0-15.559-6.79-15.559-15.165z" stroke-width="2" stroke="#000"/><path d="M15.212 251.26h316.153v82.096H15.213z" stroke="#000" stroke-width="1.999"/><path d="M163.212 84.36h8.948v166.297h-8.948zM248.16 84.36h8.948v166.297h-8.948zM77.212 84.36h8.948v166.297h-8.948z" stroke="#000" stroke-width="2.817"/><path d="M39.814 236.423H122.3v14.837H39.814z" fill="#fff" stroke="#000" stroke-width="2.555"/><path d="M46.415 221.4h70.03v15.023h-70.03z" fill="#fff" stroke="#000" stroke-width="2.369"/><path d="M51.017 206.213h59.96V221.4h-59.96z" fill="#fff" stroke="#000" stroke-width="2.204"/><path d="M56.415 190.832h49.315v15.38H56.415z" fill="#fff" stroke="#000" stroke-width="2.011"/><path d="M62.415 175.209h37.517v15.623H62.415z" fill="#fff" stroke="#000" stroke-width="1.768"/><path d="M68.962 159.319h24.593v15.945H68.962z" fill="#fff" stroke="#000" stroke-width="1.446"/></svg>
